<?xml version="1.0" encoding="UTF-8"?>
<map version="1.10" tiledversion="1.10.1" orientation="orthogonal" renderorder="right-up" width="30" height="30" tilewidth="32" tileheight="32" infinite="0" nextlayerid="3" nextobjectid="1">
 <tileset firstgid="1" name="tileset1" tilewidth="32" tileheight="32" tilecount="12" columns="3">
  <image source="tileset1.png" width="96" height="128"/>
 </tileset>
 <layer id="1" name="hindernis" width="30" height="30">
  <data encoding="csv">
10,10,10,10,10,10,10,10,10,10,10,10,10,10,10,10,10,10,10,10,10,10,10,10,10,10,10,10,10,10,
10,0,0,0,0,0,0,0,0,0,0,0,0,0,0,0,0,0,0,0,0,0,0,0,0,0,0,0,0,10,
10,0,10,10,10,10,10,10,10,10,10,10,10,10,10,10,10,10,10,10,10,0,10,10,10,10,0,10,0,10,
10,0,10,0,0,0,0,0,0,0,0,0,0,0,0,0,10,10,0,0,10,0,10,0,0,10,0,10,0,10,
10,0,10,0,10,0,0,0,0,0,0,0,0,0,0,0,0,0,0,0,10,0,10,0,0,10,0,10,0,10,
10,0,10,0,10,10,10,10,10,10,10,0,10,10,10,0,10,0,10,10,10,0,0,10,0,10,0,10,0,10,
10,0,10,0,10,0,0,0,0,0,10,0,10,0,10,0,10,0,10,0,10,10,0,10,0,10,0,10,0,10,
10,0,10,0,10,0,10,10,10,10,10,0,10,0,10,0,10,0,10,10,10,10,0,10,0,10,0,10,0,10,
10,0,10,0,10,0,10,10,10,10,10,0,10,0,10,0,10,0,0,0,0,0,0,10,0,0,0,10,0,10,
10,0,10,0,10,0,10,10,10,10,10,0,10,0,10,0,10,10,10,10,0,10,10,0,0,0,10,10,0,10,
10,0,10,0,10,0,10,10,10,10,10,0,10,0,10,0,0,0,0,10,0,10,0,0,10,0,10,0,0,10,
10,0,10,0,10,0,0,0,10,10,10,0,10,0,10,0,10,10,0,10,0,10,10,10,10,0,0,0,10,10,
10,0,10,0,10,10,10,0,10,10,10,0,10,0,10,0,10,10,0,10,0,0,0,0,0,0,10,10,10,10,
10,0,0,0,0,0,0,0,0,0,0,0,0,0,0,0,10,10,0,10,10,10,10,10,10,10,10,0,0,10,
10,0,10,0,10,0,10,0,10,10,10,10,10,0,10,10,0,10,0,0,0,0,0,0,0,0,0,0,0,10,
10,0,10,0,10,0,10,0,0,0,0,0,10,0,10,10,0,0,10,10,10,10,10,10,10,10,10,10,0,10,
10,0,10,0,10,0,10,10,10,10,10,10,0,0,10,10,10,10,0,10,10,0,0,0,0,0,0,10,0,10,
10,0,10,0,10,0,10,0,0,0,0,0,0,0,0,0,0,10,0,10,10,10,0,10,10,10,10,10,0,10,
10,0,10,10,10,0,10,0,10,10,10,10,10,10,10,10,10,10,10,10,10,10,0,10,10,10,10,10,0,10,
10,0,10,10,0,0,10,0,10,0,0,0,0,0,10,0,0,0,0,0,0,10,0,0,0,0,0,0,0,10,
10,0,10,10,0,10,10,0,0,0,0,0,0,0,10,0,10,10,10,0,0,10,0,10,10,10,10,10,0,10,
10,0,10,10,0,10,0,0,10,10,10,10,10,0,10,0,10,0,10,10,0,10,0,10,10,0,10,10,0,10,
10,0,10,10,0,10,0,0,10,0,0,0,10,0,10,0,10,10,0,0,0,10,0,10,10,10,0,10,0,10,
10,0,10,10,0,10,10,10,10,0,10,0,10,0,10,0,0,0,10,10,0,10,0,10,10,10,10,10,0,10,
10,0,10,10,0,0,0,0,0,0,10,0,10,0,10,0,0,0,10,10,0,10,0,10,10,10,10,10,0,10,
10,0,10,10,10,10,10,10,10,10,10,0,10,0,10,0,0,0,10,0,0,0,0,10,10,10,10,10,10,10,
10,0,0,0,10,0,0,0,0,0,10,0,10,0,10,0,10,10,10,10,10,10,10,10,0,10,10,10,10,10,
10,10,10,0,10,0,10,10,10,10,10,0,10,0,10,0,10,0,0,0,0,0,0,10,10,0,0,10,0,10,
10,0,0,0,0,0,0,0,0,0,0,0,0,0,0,0,0,0,0,0,0,0,0,0,0,0,0,0,0,10,
10,10,10,10,10,10,10,10,10,10,10,10,10,10,10,10,10,10,10,10,10,10,10,10,10,10,10,10,10,10
</data>
 </layer>
 <layer id="2" name="weg" width="30" height="30" visible="0">
  <data encoding="csv">
0,1,1,1,1,1,1,1,1,0,0,0,0,0,0,0,0,0,0,0,0,0,0,0,0,0,0,0,0,0,
0,1,1,1,1,1,1,1,1,1,1,1,1,1,1,1,1,1,1,1,1,1,1,1,1,1,1,1,1,0,
0,1,0,0,0,0,0,0,0,0,0,0,0,0,0,0,0,0,0,0,0,1,0,0,0,0,1,0,1,0,
0,1,0,2,2,2,2,2,2,2,2,2,2,2,2,1,0,0,2,2,0,1,0,1,1,0,1,0,1,0,
0,1,0,2,0,1,1,1,1,1,1,1,1,1,1,1,1,1,1,1,0,1,0,1,1,0,1,0,1,0,
0,1,0,2,1,1,0,0,0,0,0,2,0,0,0,1,0,1,0,0,0,1,1,0,1,0,1,0,0,0,
0,1,0,2,0,1,1,1,1,1,0,2,0,2,0,1,0,1,0,0,0,0,1,0,1,0,1,0,1,0,
0,1,0,2,0,1,0,0,0,0,0,2,0,2,0,1,0,1,0,0,0,0,1,0,1,0,1,0,1,0,
0,1,0,2,0,1,0,0,0,0,0,2,0,2,0,1,0,1,1,1,1,1,1,0,1,1,1,0,1,0,
0,1,0,2,0,1,0,0,0,0,0,2,0,2,0,1,0,0,0,0,1,0,0,1,1,1,0,0,1,0,
0,1,0,2,0,1,0,0,0,0,0,2,0,2,0,1,1,1,1,0,1,0,1,1,0,1,1,1,1,0,
0,1,0,2,0,1,1,1,0,0,0,2,0,2,0,1,0,0,1,0,1,0,0,0,0,1,1,1,0,0,
0,1,0,2,2,2,2,2,0,0,0,2,0,2,0,1,0,0,1,0,1,1,1,1,1,1,0,0,0,0,
0,1,2,2,1,2,2,2,2,2,2,2,2,1,1,1,0,0,1,0,0,0,0,0,0,0,0,1,1,0,
0,1,0,1,0,1,0,1,0,0,0,0,0,1,0,0,2,0,1,1,1,1,1,1,1,1,1,1,1,0,
0,2,0,1,0,1,0,1,1,1,1,1,0,1,0,0,2,2,0,0,0,0,0,0,0,0,0,0,1,0,
0,2,0,1,1,1,0,0,0,0,0,0,1,1,0,0,0,0,2,0,0,1,1,1,1,1,1,0,1,0,
0,2,0,1,1,1,0,1,1,1,1,1,1,1,1,1,1,1,1,1,0,1,1,0,0,0,0,0,1,0,
0,2,0,0,1,1,0,1,0,0,0,0,0,0,0,0,0,0,0,0,0,0,1,0,0,0,0,0,1,1,
0,2,0,0,1,1,0,1,0,1,1,1,1,1,0,1,1,1,1,1,1,0,1,1,1,1,1,1,1,1,
0,2,0,0,1,0,0,1,1,1,1,1,1,1,0,1,0,0,0,0,1,0,1,0,0,0,0,0,1,1,
0,2,0,0,1,0,1,1,0,0,0,0,0,1,0,1,0,2,0,0,1,0,1,1,1,1,0,0,1,1,
0,2,0,0,1,0,1,1,0,1,1,1,0,1,0,1,0,0,2,2,1,0,1,0,0,0,1,1,1,1,
0,2,0,0,1,0,0,0,0,1,0,1,0,1,0,2,2,2,0,0,1,0,1,0,0,0,0,0,1,0,
0,2,0,0,1,1,1,1,1,1,0,1,0,1,0,1,2,2,0,0,1,1,1,0,0,0,0,0,1,0,
0,2,0,0,0,0,0,0,0,0,0,1,0,1,0,1,2,2,0,1,1,1,1,0,0,0,0,0,0,0,
0,2,2,2,0,1,1,1,1,1,0,1,0,1,0,1,0,0,0,1,1,0,0,0,1,0,0,0,0,0,
0,0,0,2,2,1,0,0,0,0,0,1,0,1,0,1,0,1,1,1,1,1,1,0,0,0,2,0,1,0,
0,1,1,1,1,1,1,1,1,1,1,1,1,1,1,1,1,1,1,1,1,1,1,1,1,1,2,1,1,0,
0,0,0,0,0,0,0,0,0,0,0,0,0,0,0,0,0,0,0,0,0,0,0,0,0,0,0,0,0,0
</data>
 </layer>
</map>
